Pods/ProtonCore-UIFoundations/libraries/UIFoundations/Sources/Assets.xcassets/Images/IconSet/ic-robot.imageset/ic-robot.svg

<svg width="24" height="24" viewBox="0 0 24 24" fill="none" xmlns="http://www.w3.org/2000/svg">
<path fill-rule="evenodd" clip-rule="evenodd" d="M11.25 3.75C11.25 3.33579 11.5858 3 12 3C12.4142 3 12.75 3.33579 12.75 3.75C12.75 4.16421 12.4142 4.5 12 4.5C11.5858 4.5 11.25 4.16421 11.25 3.75ZM12 1.5C10.7574 1.5 9.75 2.50736 9.75 3.75C9.75 4.72966 10.3761 5.56309 11.25 5.87197V6.75H6.75C4.91365 6.75 3.38559 8.06994 3.06282 9.81282C1.31994 10.1356 0 11.6637 0 13.5V14.25C0 16.0642 1.28832 17.5775 3 17.925V18.75C3 20.8211 4.67893 22.5 6.75 22.5H17.25C19.3211 22.5 21 20.8211 21 18.75V17.925C22.7117 17.5775 24 16.0642 24 14.25V13.5C24 11.6637 22.6801 10.1356 20.9372 9.81282C20.6144 8.06994 19.0863 6.75 17.25 6.75H12.75V5.87197C13.6239 5.56309 14.25 4.72966 14.25 3.75C14.25 2.50736 13.2426 1.5 12 1.5ZM6.75 8.25H11.25H12.75H17.25C18.4926 8.25 19.5 9.25736 19.5 10.5V17.25V18.75C19.5 19.9926 18.4926 21 17.25 21H6.75C5.50736 21 4.5 19.9926 4.5 18.75V17.25V10.5C4.5 9.25736 5.50736 8.25 6.75 8.25ZM3 11.378C2.12611 11.6869 1.5 12.5203 1.5 13.5V14.25C1.5 15.2297 2.12611 16.0631 3 16.372V11.378ZM21 16.372V11.378C21.8739 11.6869 22.5 12.5203 22.5 13.5V14.25C22.5 15.2297 21.8739 16.0631 21 16.372ZM10.5 17.25C10.0858 17.25 9.75 17.5858 9.75 18C9.75 18.4142 10.0858 18.75 10.5 18.75H13.5C13.9142 18.75 14.25 18.4142 14.25 18C14.25 17.5858 13.9142 17.25 13.5 17.25H10.5ZM8.25 12C7.83579 12 7.5 12.3358 7.5 12.75C7.5 13.1642 7.83579 13.5 8.25 13.5C8.66421 13.5 9 13.1642 9 12.75C9 12.3358 8.66421 12 8.25 12ZM6 12.75C6 11.5074 7.00736 10.5 8.25 10.5C9.49264 10.5 10.5 11.5074 10.5 12.75C10.5 13.9926 9.49264 15 8.25 15C7.00736 15 6 13.9926 6 12.75ZM15 12.75C15 12.3358 15.3358 12 15.75 12C16.1642 12 16.5 12.3358 16.5 12.75C16.5 13.1642 16.1642 13.5 15.75 13.5C15.3358 13.5 15 13.1642 15 12.75ZM15.75 10.5C14.5074 10.5 13.5 11.5074 13.5 12.75C13.5 13.9926 14.5074 15 15.75 15C16.9926 15 18 13.9926 18 12.75C18 11.5074 16.9926 10.5 15.75 10.5Z" fill="#0C0C14"/>
</svg>

<svg xmlns="http://www.w3.org/2000/svg" width="24" height="24" viewBox="0 0 24 24">
  <g class="ic-robot">
    <path fill-rule="evenodd" d="M11.25 3.75a.75.75 0 1 1 1.5 0 .75.75 0 0 1-1.5 0ZM12 1.5a2.25 2.25 0 0 0-.75 4.372v.878h-4.5a3.751 3.751 0 0 0-3.687 3.063A3.751 3.751 0 0 0 0 13.5v.75a3.751 3.751 0 0 0 3 3.675v.825a3.75 3.75 0 0 0 3.75 3.75h10.5A3.75 3.75 0 0 0 21 18.75v-.825a3.75 3.75 0 0 0 3-3.675v-.75a3.751 3.751 0 0 0-3.063-3.687A3.751 3.751 0 0 0 17.25 6.75h-4.5v-.878A2.25 2.25 0 0 0 12 1.5ZM6.75 8.25h10.5a2.25 2.25 0 0 1 2.25 2.25v8.25A2.25 2.25 0 0 1 17.25 21H6.75a2.25 2.25 0 0 1-2.25-2.25V10.5a2.25 2.25 0 0 1 2.25-2.25ZM3 11.378A2.251 2.251 0 0 0 1.5 13.5v.75c0 .98.626 1.813 1.5 2.122v-4.994Zm18 4.994v-4.994a2.251 2.251 0 0 1 1.5 2.122v.75a2.25 2.25 0 0 1-1.5 2.122Zm-10.5.878a.75.75 0 0 0 0 1.5h3a.75.75 0 0 0 0-1.5h-3ZM8.25 12a.75.75 0 1 0 0 1.5.75.75 0 0 0 0-1.5ZM6 12.75a2.25 2.25 0 1 1 4.5 0 2.25 2.25 0 0 1-4.5 0Zm9 0a.75.75 0 1 1 1.5 0 .75.75 0 0 1-1.5 0Zm.75-2.25a2.25 2.25 0 1 0 0 4.5 2.25 2.25 0 0 0 0-4.5Z" class="Icon"/>
  </g>
</svg>
